src/macos.svg

<svg width="512" height="512" fill="none" xmlns="http://www.w3.org/2000/svg"><circle cx="256" cy="256" r="256" fill="#fff"/><path d="M281.49 170.886v-4.169l-12.958.89c-3.67.231-6.425 1.012-8.278 2.328-1.852 1.329-2.779 3.17-2.779 5.523 0 2.291.914 4.12 2.755 5.473 1.829 1.365 4.291 2.036 7.363 2.036 1.963 0 3.804-.305 5.498-.902 1.695-.598 3.182-1.439 4.425-2.511a11.26 11.26 0 0 0 2.914-3.804c.707-1.475 1.06-3.096 1.06-4.864ZM256 3.048C114.846 3.048 3.048 114.846 3.048 256c0 141.166 111.798 252.952 252.952 252.952S508.952 397.166 508.952 256C508.952 114.846 397.166 3.048 256 3.048Zm49.103 149.93c1.195-3.352 2.877-6.229 5.059-8.618 2.182-2.39 4.803-4.23 7.875-5.523 3.072-1.292 6.498-1.938 10.265-1.938 3.401 0 6.473.512 9.204 1.524 2.742 1.012 5.083 2.377 7.046 4.096 1.962 1.719 3.523 3.718 4.669 6.01a20.224 20.224 0 0 1 2.06 7.265h-10.155a13.075 13.075 0 0 0-1.377-3.925 10.74 10.74 0 0 0-2.597-3.145c-1.085-.89-2.353-1.585-3.803-2.085-1.463-.512-3.097-.756-4.938-.756-2.157 0-4.12.439-5.863 1.305-1.756.865-3.255 2.097-4.498 3.681-1.244 1.585-2.207 3.523-2.89 5.791-.694 2.279-1.036 4.803-1.036 7.582 0 2.877.342 5.462 1.036 7.729.683 2.28 1.658 4.194 2.926 5.766a12.644 12.644 0 0 0 4.547 3.609c1.768.828 3.718 1.255 5.839 1.255 3.475 0 6.303-.817 8.497-2.45 2.194-1.634 3.609-4.023 4.267-7.168h10.167c-.293 2.779-1.061 5.315-2.304 7.607a19.591 19.591 0 0 1-4.828 5.863c-1.987 1.622-4.315 2.877-6.997 3.755-2.682.878-5.632 1.329-8.838 1.329-3.804 0-7.229-.634-10.313-1.89-3.072-1.255-5.718-3.072-7.912-5.425-2.194-2.352-3.889-5.217-5.083-8.594-1.195-3.377-1.792-7.168-1.792-11.398-.025-4.132.573-7.887 1.767-11.252ZM160.61 137.594h10.166v9.033h.195a15.03 15.03 0 0 1 2.439-4.023 15.197 15.197 0 0 1 3.462-3.023c1.304-.841 2.755-1.475 4.315-1.914a18.398 18.398 0 0 1 4.962-.658c3.73 0 6.887.89 9.447 2.669 2.572 1.78 4.401 4.34 5.474 7.68h.256a15.967 15.967 0 0 1 2.694-4.315 17.23 17.23 0 0 1 3.828-3.267c1.438-.902 3.023-1.585 4.742-2.06 1.719-.476 3.523-.707 5.424-.707 2.621 0 4.999.414 7.144 1.255 2.146.842 3.974 2.012 5.498 3.536 1.524 1.523 2.694 3.376 3.511 5.546.817 2.17 1.231 4.584 1.231 7.241v36.34h-10.606v-33.792c0-3.498-.902-6.217-2.706-8.131-1.792-1.914-4.364-2.877-7.704-2.877-1.634 0-3.133.293-4.499.866-1.353.573-2.535 1.377-3.51 2.413-.988 1.024-1.756 2.268-2.304 3.706-.561 1.439-.842 3.011-.842 4.718v33.097h-10.459v-34.669c0-1.536-.244-2.926-.719-4.17-.476-1.243-1.146-2.304-2.036-3.194-.878-.889-1.963-1.56-3.218-2.035-1.268-.476-2.682-.72-4.255-.72-1.633 0-3.145.305-4.547.915a10.716 10.716 0 0 0-3.584 2.523 11.487 11.487 0 0 0-2.328 3.828c-.537 1.463-1.414 3.072-1.414 4.803v32.707H160.61v-53.321Zm23.076 255.256c-46.628 0-75.873-32.402-75.873-84.114s29.245-84.224 75.873-84.224c46.629 0 75.764 32.512 75.764 84.224 0 51.7-29.135 84.114-75.764 84.114Zm86.333-202.057a21.22 21.22 0 0 1-5.278.658c-2.658 0-5.084-.377-7.29-1.133-2.219-.756-4.109-1.817-5.693-3.194a14.328 14.328 0 0 1-3.706-4.986c-.89-1.951-1.329-4.12-1.329-6.51 0-4.681 1.743-8.338 5.23-10.971 3.486-2.633 8.533-4.169 15.152-4.596l14.385-.829v-4.12c0-3.072-.975-5.425-2.925-7.022-1.951-1.597-4.706-2.402-8.278-2.402a14.73 14.73 0 0 0-4.035.537c-1.243.365-2.34.877-3.291 1.548a8.85 8.85 0 0 0-2.353 2.414 8.621 8.621 0 0 0-1.28 3.12h-9.972c.061-2.352.646-4.534 1.743-6.534 1.098-1.999 2.585-3.73 4.474-5.205 1.89-1.475 4.096-2.621 6.656-3.438 2.56-.816 5.34-1.231 8.351-1.231 3.242 0 6.18.402 8.814 1.231 2.633.829 4.888 1.987 6.753 3.511 1.865 1.524 3.304 3.353 4.315 5.498 1.012 2.146 1.524 4.547 1.524 7.192v36.584h-10.154v-8.887h-.256a16.017 16.017 0 0 1-2.865 3.901 18.421 18.421 0 0 1-3.925 2.975 19.783 19.783 0 0 1-4.767 1.889Zm67.084 202.057c-35.559 0-59.733-18.627-61.415-47.872h23.149c1.805 16.713 17.957 27.782 40.083 27.782 21.223 0 36.474-11.069 36.474-26.197 0-13.092-9.265-21.004-30.708-26.417l-20.895-5.193c-30.037-7.448-43.69-21.114-43.69-43.581 0-27.66 24.161-46.86 58.599-46.86 33.646 0 57.125 19.31 58.027 47.08h-22.918c-1.585-16.714-15.238-26.99-35.572-26.99-20.212 0-34.207 10.386-34.207 25.405 0 11.849 8.802 18.859 30.257 24.271l17.615 4.401c33.536 8.131 47.312 21.345 47.312 45.056-.012 30.257-23.942 49.115-62.111 49.115ZM183.686 245.272c-31.951 0-51.931 24.503-51.931 63.452 0 38.839 19.98 63.342 51.931 63.342 31.842 0 51.932-24.503 51.932-63.342.012-38.949-20.09-63.452-51.932-63.452Z" fill="#000"/><g clip-path="url(#a)"><path d="M425.371 382.145c5.016 0 9.082-3.592 9.082-8.023 0-4.431-4.066-8.022-9.082-8.022-5.016 0-9.082 3.591-9.082 8.022s4.066 8.023 9.082 8.023Z" fill="#000"/><path d="m397.76 356.995.027-1.041-1.224.239-.282.055-2.034.397 1.201 1.024c-.328.145-.801.198-1.535.279l-.011.001c-.645.072-1.531.171-2.26.567a2.713 2.713 0 0 0-1.152 1.172 5.715 5.715 0 0 0-.817-.218c-.431-.075-1.155-.125-1.653.414-.504.546-.367 1.245-.282 1.557.106.387.305.796.508 1.164.219.395.494.831.761 1.245l-.375.299c-2.265 1.804-3.397 4.542-4.432 7.043l-.027.066c-1.081 2.614-2.084 5.018-3.993 6.72l-.155.138-.087.189c-1.423 3.082-2.302 6.275-3.073 9.44-.176.72-.346 1.436-.515 2.15-.579 2.449-1.15 4.862-1.923 7.255l-.023.07-.012.073c-.99 5.926-1.906 12.062-.393 18.23.097 1.103.097 2.307.097 3.598v.13c0 1.35.005 2.783.139 4.178.268 2.783 1.072 5.617 3.601 7.56 5.798 4.759 10.721 10.662 15.634 16.551.567.68 1.133 1.359 1.701 2.036 8.589 10.564 16.162 21.964 22.939 33.721l1.209 2.097c.264.865.577 1.824.938 2.636.208.466.449.925.731 1.303.269.359.662.764 1.21.93l1.52.46-.242-1.57c-.68-4.407-1.562-11.418-1.99-16.855l-.003-.037-.005-.036c-1.112-7.25-3.45-14.13-5.812-20.906l-.347-.994c-2.252-6.453-4.475-12.822-5.721-19.461-.04-.296-.084-.595-.127-.89l-.001-.004c-.041-.28-.082-.557-.12-.832v-2.708h-.329c-.776-6.729-.789-13.461 3.732-18.287 2.451-2.468 5.528-4.041 8.858-5.466.827-.355 1.676-.701 2.533-1.052 2.541-1.038 5.16-2.108 7.542-3.498l.005-.003a20.177 20.177 0 0 1 4.01-1.828c.045-.007.097-.018.154-.035 4.132-1.275 8.585-1.247 12.986-.531l.16-.987-.164.986.004.001.013.003.045.009c.032.007.093.021.154.031l.303.05c.32.052.633.104.928.161l.051.01.052.005c.502.045 1.125.119 1.814.201 1.401.168 3.078.368 4.577.419 1.138.038 2.282-.002 3.249-.226.939-.218 1.933-.662 2.435-1.62l.068-.13.268.232c.319.278.624.542.923.795.348.294.68.563.974.771.257.182.613.413.982.496l1.355.305-.141-1.382c-.343-3.347-2.195-5.741-4.533-7.49-2.3-1.72-5.129-2.863-7.607-3.74-1.512-.729-3.187-1.264-4.802-1.764a98.627 98.627 0 0 1-.399-.123c-1.516-.468-2.97-.917-4.296-1.489-1.435-.62-2.647-1.355-3.553-2.34-.891-.969-1.529-2.226-1.747-3.974l-.018-.15-.062-.137-.043-.096c-.228-.505-.475-1.055-.777-1.593l-.032-.057-.04-.053-1.529-2.038.154-.077-.823-.972c-3.207-3.784-7.704-6.532-12.508-7.603-4.566-1.58-9.758-3.167-14.715-3.802l-.812-.104-.263.775c-.12.354-.225.577-.303.711a2.416 2.416 0 0 1-.113-.094 11.667 11.667 0 0 1-.743-.757l-.003-.003-.029-.032c-.549-.589-1.309-1.405-2.235-1.866a3.431 3.431 0 0 0-1.698-.381c-.564.025-1.125.198-1.678.52-.799.104-1.39.232-1.845.335l-.004.001c-.531.12-.746.169-.929.171-.164.001-.356-.018-1.146-.643Zm47.344 31.21a36.598 36.598 0 0 0-3.062-.439l-5.348-1.197-.25-.064 12.242 2.265c.382.142.77.278 1.161.407l-.444-.075c-1.462-.248-2.874-.51-4.214-.878l-.042-.011-.043-.008Zm-9.701 8.093h-.001.001Zm-13.783-23.97c1.116-.03 2.423.176 3.769.639 1.785.617 3.211 1.563 4.089 2.544.903 1.01 1.079 1.865.884 2.428-.193.559-.862 1.121-2.206 1.352-1.305.225-3.019.081-4.805-.54-1.79-.623-3.218-1.558-4.095-2.526-.899-.993-1.076-1.835-.88-2.406.248-.718 1.287-1.439 3.244-1.491Z" fill="#F60" stroke="#fff" stroke-width="2"/></g><defs><clipPath id="a"><path fill="#fff" transform="translate(340 344)" d="M0 0h155v155H0z"/></clipPath></defs></svg>

<svg width="512" height="512" viewBox="0 0 512 512" fill="none" xmlns="http://www.w3.org/2000/svg">
<circle cx="256" cy="256" r="256" fill="white"/>
<path d="M281.49 170.886V166.717L268.532 167.607C264.862 167.838 262.107 168.619 260.254 169.935C258.402 171.264 257.475 173.105 257.475 175.458C257.475 177.749 258.389 179.578 260.23 180.931C262.059 182.296 264.521 182.967 267.593 182.967C269.556 182.967 271.397 182.662 273.091 182.065C274.786 181.467 276.273 180.626 277.516 179.554C278.76 178.493 279.735 177.225 280.43 175.75C281.137 174.275 281.49 172.654 281.49 170.886ZM256 3.04762C114.846 3.04762 3.04761 114.846 3.04761 256C3.04761 397.166 114.846 508.952 256 508.952C397.154 508.952 508.952 397.166 508.952 256C508.952 114.846 397.166 3.04762 256 3.04762ZM305.103 152.978C306.298 149.626 307.98 146.749 310.162 144.36C312.344 141.97 314.965 140.13 318.037 138.837C321.109 137.545 324.535 136.899 328.302 136.899C331.703 136.899 334.775 137.411 337.506 138.423C340.248 139.435 342.589 140.8 344.552 142.519C346.514 144.238 348.075 146.237 349.221 148.529C350.366 150.821 351.049 153.246 351.281 155.794H341.126C340.87 154.392 340.407 153.076 339.749 151.869C339.09 150.662 338.225 149.614 337.152 148.724C336.067 147.834 334.799 147.139 333.349 146.639C331.886 146.127 330.252 145.883 328.411 145.883C326.254 145.883 324.291 146.322 322.548 147.188C320.792 148.053 319.293 149.285 318.05 150.869C316.806 152.454 315.843 154.392 315.16 156.66C314.466 158.939 314.124 161.463 314.124 164.242C314.124 167.119 314.466 169.704 315.16 171.971C315.843 174.251 316.818 176.165 318.086 177.737C319.342 179.31 320.866 180.517 322.633 181.346C324.401 182.174 326.351 182.601 328.472 182.601C331.947 182.601 334.775 181.784 336.969 180.151C339.163 178.517 340.578 176.128 341.236 172.983H351.403C351.11 175.762 350.342 178.298 349.099 180.59C347.855 182.882 346.246 184.832 344.271 186.453C342.284 188.075 339.956 189.33 337.274 190.208C334.592 191.086 331.642 191.537 328.436 191.537C324.632 191.537 321.207 190.903 318.123 189.647C315.051 188.392 312.405 186.575 310.211 184.222C308.017 181.87 306.322 179.005 305.128 175.628C303.933 172.251 303.336 168.46 303.336 164.23C303.311 160.098 303.909 156.343 305.103 152.978V152.978ZM160.61 137.594H170.776V146.627H170.971C171.593 145.128 172.41 143.774 173.41 142.604C174.409 141.422 175.555 140.422 176.872 139.581C178.176 138.74 179.627 138.106 181.187 137.667C182.76 137.228 184.418 137.009 186.149 137.009C189.879 137.009 193.036 137.899 195.596 139.678C198.168 141.458 199.997 144.018 201.07 147.358H201.326C202.008 145.749 202.91 144.311 204.02 143.043C205.129 141.775 206.409 140.678 207.848 139.776C209.286 138.874 210.871 138.191 212.59 137.716C214.309 137.24 216.113 137.009 218.014 137.009C220.635 137.009 223.013 137.423 225.158 138.264C227.304 139.106 229.132 140.276 230.656 141.8C232.18 143.323 233.35 145.176 234.167 147.346C234.984 149.516 235.398 151.93 235.398 154.587V190.927H224.792V157.135C224.792 153.637 223.89 150.918 222.086 149.004C220.294 147.09 217.722 146.127 214.382 146.127C212.748 146.127 211.249 146.42 209.883 146.993C208.53 147.566 207.348 148.37 206.373 149.406C205.385 150.43 204.617 151.674 204.069 153.112C203.508 154.551 203.227 156.123 203.227 157.83V190.927H192.768V156.258C192.768 154.722 192.524 153.332 192.049 152.088C191.573 150.845 190.903 149.784 190.013 148.894C189.135 148.005 188.05 147.334 186.795 146.859C185.527 146.383 184.113 146.139 182.54 146.139C180.907 146.139 179.395 146.444 177.993 147.054C176.603 147.663 175.409 148.504 174.409 149.577C173.41 150.662 172.629 151.93 172.081 153.405C171.544 154.868 170.667 156.477 170.667 158.208V190.915H160.61V137.594V137.594ZM183.686 392.85C137.058 392.85 107.813 360.448 107.813 308.736C107.813 257.024 137.058 224.512 183.686 224.512C230.315 224.512 259.45 257.024 259.45 308.736C259.45 360.436 230.315 392.85 183.686 392.85V392.85ZM270.019 190.793C268.3 191.232 266.545 191.451 264.741 191.451C262.083 191.451 259.657 191.074 257.451 190.318C255.232 189.562 253.342 188.501 251.758 187.124C250.173 185.746 248.93 184.088 248.052 182.138C247.162 180.187 246.723 178.018 246.723 175.628C246.723 170.947 248.466 167.29 251.953 164.657C255.439 162.024 260.486 160.488 267.106 160.061L281.49 159.232V155.112C281.49 152.04 280.515 149.687 278.565 148.09C276.614 146.493 273.859 145.688 270.287 145.688C268.849 145.688 267.496 145.871 266.252 146.225C265.009 146.59 263.912 147.102 262.961 147.773C262.01 148.443 261.218 149.248 260.608 150.187C259.986 151.113 259.56 152.162 259.328 153.307H249.356C249.417 150.955 250.002 148.773 251.099 146.773C252.197 144.774 253.684 143.043 255.573 141.568C257.463 140.093 259.669 138.947 262.229 138.13C264.789 137.314 267.569 136.899 270.58 136.899C273.822 136.899 276.76 137.301 279.394 138.13C282.027 138.959 284.282 140.117 286.147 141.641C288.012 143.165 289.451 144.994 290.462 147.139C291.474 149.285 291.986 151.686 291.986 154.331V190.915H281.832V182.028H281.576C280.82 183.467 279.869 184.771 278.711 185.929C277.541 187.087 276.236 188.087 274.786 188.904C273.323 189.72 271.738 190.354 270.019 190.793V190.793ZM337.103 392.85C301.544 392.85 277.37 374.223 275.688 344.978H298.837C300.642 361.691 316.794 372.76 338.92 372.76C360.143 372.76 375.394 361.691 375.394 346.563C375.394 333.47 366.129 325.559 344.686 320.146L323.791 314.953C293.754 307.505 280.101 293.839 280.101 271.372C280.101 243.712 304.262 224.512 338.7 224.512C372.346 224.512 395.825 243.822 396.727 271.592H373.809C372.224 254.878 358.571 244.602 338.237 244.602C318.025 244.602 304.03 254.988 304.03 270.007C304.03 281.856 312.832 288.866 334.287 294.278L351.902 298.679C385.438 306.81 399.214 320.024 399.214 343.735C399.202 373.992 375.272 392.85 337.103 392.85V392.85ZM183.686 245.272C151.735 245.272 131.755 269.775 131.755 308.724C131.755 347.563 151.735 372.066 183.686 372.066C215.528 372.066 235.618 347.563 235.618 308.724C235.63 269.775 215.528 245.272 183.686 245.272V245.272Z" fill="black"/>
<circle cx="434.5" cy="434.5" r="77.5" fill="white"/>
<path d="M425.077 383.035L389.695 383.035C388.859 383.035 388.182 383.713 388.182 384.549C388.182 385.385 388.859 386.063 389.695 386.063L422.466 386.063C422.7 385.715 422.942 385.369 423.192 385.024L424.3 383.494L425.077 383.035Z" fill="#E91F63"/>
<path d="M414.021 402.627C413.758 403.326 413.481 404.062 413.201 404.832L375.77 404.832C374.934 404.832 374.256 404.154 374.256 403.318C374.256 402.482 374.934 401.805 375.77 401.805L414.365 401.805L414.256 402.001L414.021 402.627Z" fill="#E91F63" fill-opacity="0.7"/>
<path d="M409.981 420.271L369.715 420.271C368.879 420.271 368.201 420.949 368.201 421.785C368.201 422.621 368.879 423.299 369.715 423.299L409.566 423.299C409.574 423.255 409.583 423.211 409.591 423.168L409.6 423.123C409.788 422.168 409.911 421.53 409.988 421.029C409.983 420.775 409.98 420.523 409.981 420.271Z" fill="#E91F63" fill-opacity="0.3"/>
<path d="M411.238 439.041L368.201 439.041C367.365 439.041 366.688 439.719 366.688 440.555C366.688 441.391 367.365 442.068 368.201 442.068L413.542 442.068C413.244 441.681 412.941 441.299 412.632 440.922C412.101 440.306 411.639 439.677 411.238 439.041Z" fill="#E91F63"/>
<path d="M422.95 457.508L372.742 457.508C371.906 457.508 371.229 458.186 371.229 459.021C371.229 459.857 371.906 460.535 372.742 460.535L424.569 460.535C424.27 459.958 423.969 459.383 423.665 458.809C423.424 458.372 423.186 457.938 422.95 457.508Z" fill="#E91F63" fill-opacity="0.6"/>
<path d="M431.847 476.277L384.852 476.277C384.016 476.277 383.338 476.955 383.338 477.791C383.338 478.627 384.016 479.305 384.852 479.305L433.073 479.305C432.672 478.292 432.263 477.283 431.847 476.277Z" fill="#E91F63"/>
<path d="M448.208 374.214C447.614 376.864 443.434 373.631 442.641 376.63C437.96 373.333 442.354 380.198 441.734 380.632L441.697 380.625L441.325 380.512C441.094 380.375 440.764 380.15 440.296 379.717C436.146 381.868 434.892 387.786 430.546 390.353C427.094 395.117 425.379 400.679 422.521 405.826C420.618 410.883 418.819 415.96 419.089 421.445C418.641 425.778 416.273 431.325 419.566 435.056C424.389 440.907 427.989 447.831 431.655 454.491C437.386 465.283 442.074 476.628 445.996 488.138C446.898 485.638 446.326 493.584 447.95 494.447C448.115 490.45 448.554 484.132 449.121 479.267C449.667 466.363 445.729 453.84 445.85 440.978C445.881 440.441 445.903 439.887 445.935 439.34L446.242 437.784L446.052 437.746C446.498 431.468 447.533 424.774 452.918 420.909C458.369 417.22 465.37 417.399 471.458 415.288C472.815 414.809 474.207 414.478 475.59 414.321C475.601 414.32 475.617 414.33 475.628 414.329C479.652 413.905 483.694 414.739 487.508 416.156C487.565 416.177 487.634 416.21 487.69 416.231C488.037 416.362 488.413 416.499 488.755 416.638C491.586 417.462 497.164 419.735 498.603 417.946C495.295 413.77 489.507 412.883 484.894 410.585C484.155 410.294 483.237 409.955 482.306 409.681L477.761 407.68L476.642 407.144L476.635 407.182L460.262 400.521C460.04 400.222 459.796 399.912 459.56 399.673L475.693 404.985L475.708 404.909C476.266 405.154 476.824 405.374 477.399 405.558L477.392 405.596L488.664 410.065C490.534 411.217 492.576 412.2 494.568 412.731C497.805 413.873 501.069 419.684 502.103 420.14C502.599 414.793 497.834 411.417 493.794 409.029C489.21 405.562 481.615 404.167 482.107 397.177C481.987 396.66 481.87 396.144 481.702 395.632L480.249 392.617L480.333 392.594C478.261 388.877 474.922 385.819 471.059 384.136C467.332 381.961 463.103 379.701 458.942 378.313C456.674 382.262 456.563 374.358 452.666 375.932C449.567 375.694 449.823 376.576 447.951 374.214L448.208 374.214ZM467.532 390.906C468.634 391.093 469.845 391.541 471.024 392.225C474.151 394.046 475.857 396.929 474.846 398.663C473.835 400.396 470.466 400.314 467.34 398.485C464.214 396.657 462.497 393.83 463.51 392.084C464.142 390.997 465.698 390.595 467.532 390.906Z" fill="#E91F63"/>
<path d="M466.591 399.038C469.725 401.043 473.309 401.039 474.595 399.029C475.881 397.019 474.383 393.764 471.248 391.759C468.114 389.754 464.531 389.758 463.245 391.768C461.959 393.778 463.457 397.033 466.591 399.038Z" fill="black"/>
<path fill-rule="evenodd" clip-rule="evenodd" d="M471.284 399.026C472.422 399.025 473.049 398.636 473.32 398.214C473.59 397.791 473.68 397.058 473.204 396.025C472.737 395.01 471.793 393.904 470.433 393.034C469.073 392.164 467.673 391.77 466.555 391.771C465.418 391.773 464.79 392.161 464.52 392.584C464.25 393.006 464.16 393.739 464.636 394.772C465.103 395.787 466.047 396.893 467.407 397.763C468.767 398.633 470.167 399.027 471.284 399.026ZM474.595 399.029C473.309 401.039 469.725 401.043 466.591 399.038C463.457 397.033 461.959 393.778 463.245 391.768C464.531 389.758 468.114 389.754 471.248 391.759C474.383 393.764 475.881 397.019 474.595 399.029Z" fill="white"/>
</svg>
